src/game/GamePart/Arena/Field/PlayersLayer/img/me-3.svg

<svg width="40" height="40" viewBox="0 0 40 40" fill="none" xmlns="http://www.w3.org/2000/svg">
<g clip-path="url(#clip0)">
<path d="M32.2358 27.5551C32.2358 20.7499 26.7193 15.2334 19.9141 15.2334C13.1093 15.2334 7.59277 20.7499 7.59277 27.5551C7.59277 34.3603 13.1093 35.7696 19.9141 35.7696C26.7193 35.7696 32.2358 34.3603 32.2358 27.5551Z" fill="#0097A7"/>
<path d="M32.2357 27.5552H32.8581C32.8574 20.406 27.0631 14.6114 19.914 14.6111C12.7652 14.6114 6.97057 20.406 6.97022 27.5552C6.9695 29.3388 7.33378 30.8194 8.02103 32.0187C8.53486 32.9175 9.22745 33.6503 10.0465 34.23C11.2767 35.1007 12.7819 35.6345 14.4545 35.9578C16.1281 36.28 17.9758 36.3919 19.914 36.3919C23.3588 36.3876 26.5222 36.0493 28.9223 34.762C30.1194 34.1175 31.1218 33.2188 31.8073 32.0187C32.4945 30.8194 32.8584 29.3388 32.8581 27.5552H31.6132C31.6125 29.174 31.2874 30.4213 30.7273 31.4002C30.306 32.1352 29.7498 32.7267 29.0622 33.2145C28.0324 33.9452 26.6974 34.4352 25.1381 34.7353C23.5799 35.0362 21.8037 35.1477 19.914 35.1473C16.5536 35.1516 13.556 34.7852 11.4968 33.6664C10.4645 33.1077 9.66259 32.3788 9.10068 31.4002C8.54092 30.421 8.21545 29.1736 8.21474 27.5548C8.2151 24.3223 9.52336 21.4013 11.6414 19.2822C13.7604 17.1642 16.6814 15.856 19.914 15.8556C23.1465 15.856 26.0675 17.1642 28.1866 19.2822C30.305 21.4013 31.6129 24.3223 31.6132 27.5548H32.2357V27.5552Z" fill="#54596E"/>
<path d="M19.2912 23.9455C19.2912 26.0079 17.6198 27.6794 15.5577 27.6794C13.4956 27.6794 11.8237 26.0079 11.8237 23.9455C11.8237 21.8834 13.4956 20.2119 15.5577 20.2119C17.6198 20.2119 19.2912 21.8834 19.2912 23.9455Z" fill="white"/>
<path d="M19.2911 23.9454H19.9135C19.9132 21.5396 17.9633 19.5897 15.5575 19.5894C13.1515 19.5897 11.2019 21.5396 11.2012 23.9454C11.2019 26.3514 13.1515 28.3014 15.5575 28.3017C17.9633 28.3014 19.9132 26.3514 19.9135 23.9454H18.669C18.6687 24.8067 18.3218 25.5805 17.7574 26.1456C17.1927 26.7097 16.4186 27.0569 15.5575 27.0572C14.6962 27.0569 13.9224 26.7097 13.3573 26.1456C12.7932 25.5805 12.4461 24.8067 12.4461 23.9454C12.4461 23.0843 12.7932 22.3106 13.3573 21.7455C13.9224 21.1814 14.6962 20.8342 15.5575 20.8339C16.4186 20.8342 17.1927 21.1814 17.7574 21.7455C18.3218 22.3106 18.6687 23.0843 18.669 23.9454H19.2911Z" fill="#54596E"/>
<path d="M28.0041 23.9455C28.0041 26.0079 26.3326 27.6794 24.2702 27.6794C22.2081 27.6794 20.5366 26.0079 20.5366 23.9455C20.5366 21.8834 22.2081 20.2119 24.2702 20.2119C26.3326 20.2119 28.0041 21.8834 28.0041 23.9455Z" fill="white"/>
<path d="M28.0035 23.9454H28.626C28.6252 21.5396 26.6757 19.5897 24.2696 19.5894C21.8639 19.5897 19.9139 21.5396 19.9136 23.9454C19.9139 26.3514 21.8639 28.3014 24.2696 28.3017C26.6757 28.3014 28.6252 26.3514 28.626 23.9454H27.3814C27.3811 24.8067 27.0339 25.5805 26.4698 26.1456C25.9047 26.7097 25.131 27.0569 24.2696 27.0572C23.4086 27.0569 22.6348 26.7097 22.0697 26.1456C21.5053 25.5805 21.1585 24.8067 21.1581 23.9454C21.1585 23.0843 21.5053 22.3106 22.0697 21.7455C22.6348 21.1814 23.4086 20.8342 24.2696 20.8339C25.131 20.8342 25.9047 21.1814 26.4698 21.7455C27.0339 22.3106 27.3811 23.0843 27.3814 23.9454H28.0035Z" fill="#54596E"/>
<path d="M1.08074 28.1005L1.08145 28.0998C1.11777 28.0607 1.65546 27.502 2.5966 26.9621C3.53952 26.4216 4.87663 25.9003 6.54383 25.9003C6.83653 25.9003 7.13956 25.9163 7.45256 25.9512C7.79405 25.9897 8.10206 25.744 8.14016 25.4025C8.17862 25.061 7.93256 24.753 7.59108 24.7145C7.23107 24.6743 6.88175 24.6558 6.54383 24.6558C4.5501 24.6558 2.9591 25.301 1.87339 25.943C0.786256 26.5861 0.193728 27.2267 0.164172 27.2584C-0.0683524 27.5112 -0.0519724 27.9051 0.201205 28.1376C0.454383 28.3701 0.848215 28.3537 1.08074 28.1005Z" fill="#54596E"/>
<path d="M1.58067 32.5305L1.37948 32.423L1.57996 32.5319L1.58067 32.5305L1.37948 32.423L1.57996 32.5319C1.58495 32.522 2.02044 31.7282 2.94021 30.8825C3.86212 30.0354 5.25229 29.137 7.21361 28.8571C7.55403 28.8083 7.79047 28.4936 7.74205 28.1531C7.69326 27.8127 7.37848 27.5763 7.03806 27.6247C4.74522 27.9509 3.10152 29.0266 2.04715 30.0133C0.990281 31.0018 0.506003 31.9031 0.483213 31.944C0.321194 32.2471 0.435854 32.6242 0.738884 32.7862C1.04191 32.9478 1.41901 32.8335 1.58067 32.5305Z" fill="#54596E"/>
<path d="M3.63397 36.2817L3.40322 36.2383L3.63361 36.2835L3.63397 36.2817L3.40322 36.2383L3.63361 36.2835C3.63503 36.2721 3.81343 35.3847 4.4373 34.3026C5.06366 33.2179 6.12088 31.9446 7.90843 31.09C8.21859 30.9418 8.34963 30.5704 8.20149 30.2603C8.05336 29.9501 7.68196 29.8191 7.37181 29.9672C5.28194 30.965 4.03563 32.4833 3.32524 33.7407C2.61271 35.0002 2.42007 36.005 2.41081 36.051C2.34707 36.3885 2.56927 36.7144 2.90684 36.7777C3.24476 36.8415 3.57023 36.6196 3.63397 36.2817Z" fill="#54596E"/>
<path d="M39.8359 27.258C39.8064 27.2267 39.2138 26.5861 38.1267 25.9427C37.041 25.301 35.45 24.6554 33.4563 24.6558C33.1183 24.6558 32.769 24.6739 32.409 24.7145C32.0675 24.753 31.8215 25.0606 31.8599 25.4025C31.898 25.744 32.206 25.9897 32.5475 25.9512C32.8609 25.9163 33.1636 25.9003 33.4563 25.9003C35.1772 25.9003 36.5471 26.4554 37.4936 27.0145C37.9657 27.2933 38.33 27.5725 38.5718 27.7783C38.6929 27.8812 38.7837 27.9659 38.8421 28.0226L38.9055 28.0856L38.9186 28.0995L38.9193 28.1002C39.1522 28.3534 39.5457 28.3701 39.7989 28.1372C40.0521 27.9051 40.0684 27.5112 39.8359 27.258Z" fill="#54596E"/>
<path d="M39.5169 31.944C39.4942 31.9027 39.0095 31.0015 37.9527 30.0133C36.8983 29.0263 35.2549 27.9509 32.9617 27.6247C32.6217 27.5763 32.3065 27.8127 32.2577 28.1531C32.2093 28.4932 32.4461 28.8083 32.7862 28.8571C34.7785 29.1416 36.1818 30.0642 37.103 30.9228C37.5624 31.3515 37.8971 31.7631 38.114 32.0633C38.2226 32.2132 38.3016 32.3354 38.3522 32.4173L38.4067 32.5084L38.4181 32.5287L38.4198 32.5319L38.6203 32.4226L38.4191 32.5302L38.4198 32.5319L38.6203 32.4226L38.4191 32.5302C38.5811 32.8332 38.9579 32.9478 39.2609 32.7862C39.5639 32.6242 39.6786 32.2471 39.5169 31.944Z" fill="#54596E"/>
<path d="M37.589 36.0508C37.5798 36.0045 37.3875 34.9996 36.6753 33.7401C35.9646 32.4831 34.7186 30.9644 32.6284 29.9667C32.3182 29.8185 31.9468 29.9499 31.7987 30.2601C31.6506 30.5702 31.782 30.9416 32.0918 31.0898C33.9074 31.9579 34.9704 33.2583 35.5921 34.3537C35.9015 34.9002 36.0981 35.3934 36.2152 35.7445C36.2736 35.9201 36.3125 36.06 36.3363 36.1533L36.3609 36.2569L36.3655 36.2794L36.3662 36.2829L36.5941 36.2384L36.3659 36.2815L36.3662 36.2829L36.5941 36.2384L36.3659 36.2815C36.4296 36.6191 36.7551 36.8413 37.093 36.7775C37.4306 36.7138 37.6528 36.3883 37.589 36.0508Z" fill="#54596E"/>
<path d="M16.8024 23.9455C16.8024 24.6331 16.2451 25.1903 15.5579 25.1903C14.8703 25.1903 14.313 24.6331 14.313 23.9455C14.313 23.2582 14.8703 22.7009 15.5579 22.7009C16.2451 22.7009 16.8024 23.2582 16.8024 23.9455Z" fill="#55A6FF"/>
<path d="M25.5148 23.9455C25.5148 24.6331 24.9575 25.1903 24.2699 25.1903C23.5827 25.1903 23.0254 24.6331 23.0254 23.9455C23.0254 23.2582 23.5827 22.7009 24.2699 22.7009C24.9575 22.7009 25.5148 23.2582 25.5148 23.9455Z" fill="#55A6FF"/>
<path d="M6.50888 11.8866C6.50888 11.8866 7.84557 6.81906 8.38504 4.77249C6.15914 4.13266 3.45233 6.18318 2.2535 9.4774C1.01898 12.8687 1.85091 16.2846 4.11195 17.1074C6.3727 17.9305 9.20589 15.8483 10.4401 12.4575C10.8486 11.3354 11.0261 10.2132 11.005 9.18101L6.50888 11.8866Z" fill="#0097A7"/>
<path d="M6.50904 11.8865L7.11088 12.0454C7.11088 12.0454 8.44716 6.97767 8.98698 4.93103C9.07325 4.60414 8.88229 4.26755 8.55738 4.17407C7.99895 4.01328 7.4175 3.99467 6.84982 4.09513C5.76127 4.28888 4.72238 4.90162 3.82675 5.79572C2.93073 6.6917 2.17401 7.87733 1.66869 9.26451C1.07569 10.8967 0.925723 12.5398 1.17615 13.9662C1.32795 14.8271 1.62721 15.6118 2.0808 16.2607C2.53316 16.9088 3.14938 17.4199 3.89882 17.692C4.52644 17.9212 5.19211 17.9622 5.83822 17.8472C6.92817 17.6532 7.96786 17.0389 8.865 16.1431C9.76141 15.2452 10.5193 14.058 11.0248 12.67C11.4589 11.4773 11.65 10.2808 11.6273 9.16818C11.6229 8.94588 11.5004 8.7433 11.306 8.63582C11.1114 8.52841 10.8746 8.53291 10.6844 8.64745L6.18796 11.3534L6.50904 11.8865L7.11088 12.0454L6.50904 11.8865L6.82976 12.4197L11.3262 9.71411L11.0051 9.18098L10.3829 9.19344C10.4025 10.1453 10.238 11.1936 9.85525 12.2442C9.40936 13.4701 8.74076 14.5075 7.98457 15.2635C7.22869 16.0212 6.38942 16.4885 5.62218 16.622C5.16436 16.7016 4.73372 16.6709 4.32469 16.5228C3.83799 16.3443 3.43151 16.0179 3.10042 15.5469C2.77098 15.0771 2.527 14.4624 2.40142 13.7502C2.19235 12.5707 2.31267 11.1306 2.83827 9.69032C3.28359 8.46523 3.95145 7.42977 4.70619 6.67586C5.46098 5.92013 6.29939 5.45411 7.06557 5.32081C7.46751 5.2503 7.84959 5.26609 8.21331 5.37046L8.3852 4.77247L7.78341 4.6139C7.51329 5.63708 7.04449 7.41591 6.64295 8.93846C6.24106 10.4611 5.9069 11.728 5.9069 11.728C5.84234 11.973 5.93259 12.2326 6.13546 12.3845C6.3384 12.5367 6.61239 12.5506 6.82982 12.4201L6.50904 11.8865Z" fill="#54596E"/>
<path d="M3.97649 17.0821C3.95932 17.1057 3.74954 17.3842 3.55369 17.8114C3.36315 18.2381 3.16455 18.822 3.27595 19.4886C3.33548 19.8364 3.4983 20.2001 3.78104 20.5035C4.20762 20.9623 4.85427 21.2728 5.75687 21.4394C6.66367 21.6053 7.84891 21.6339 9.43608 21.4791C9.778 21.4456 10.0284 21.1411 9.99487 20.7992C9.96133 20.4572 9.65691 20.2072 9.31498 20.2407C7.30075 20.4404 6.04488 20.3024 5.35759 20.0526C5.01213 19.9288 4.81268 19.7861 4.69517 19.6589C4.57845 19.5301 4.52865 19.4138 4.50192 19.2724C4.44946 19.0098 4.54374 18.6319 4.68584 18.3285C4.75503 18.1774 4.83032 18.0466 4.8865 17.9572L4.95322 17.8557L4.9694 17.8326L4.97235 17.8289L4.79821 17.7005L4.97119 17.8305L4.97235 17.8289L4.79821 17.7005L4.97119 17.8305C5.17767 17.5558 5.12226 17.1657 4.84792 16.9592C4.57317 16.7523 4.18303 16.8077 3.97649 17.0821Z" fill="#54596E"/>
<path d="M33.4721 12.2477C33.4721 12.2477 32.5825 7.08306 32.2231 4.99716C34.4966 4.55386 37.0144 6.83249 37.9212 10.2186C38.8558 13.7046 37.729 17.035 35.4048 17.6575C33.0809 18.2805 30.44 15.9593 29.506 12.4738C29.1972 11.3205 29.1179 10.187 29.2289 9.16056L33.4721 12.2477Z" fill="#0097A7"/>
<path d="M33.4718 12.2478L34.0851 12.1423C34.0851 12.1423 33.1955 6.97772 32.8358 4.89139L32.2224 4.99725L32.3419 5.60803C32.7133 5.53577 33.0952 5.55368 33.4892 5.65852C34.2416 5.85826 35.0358 6.3955 35.7219 7.21413C36.4081 8.03096 36.9831 9.12068 37.32 10.3799C37.7177 11.8604 37.7121 13.3055 37.401 14.4623C37.2142 15.1609 36.9172 15.7519 36.548 16.1913C36.1772 16.6316 35.7438 16.9213 35.2434 17.0567L35.2437 17.0568C34.8233 17.1687 34.3913 17.1617 33.9422 17.0425C33.1898 16.8427 32.3942 16.3036 31.7072 15.4833C31.0201 14.6643 30.4441 13.5725 30.107 12.3129C29.8174 11.2325 29.7449 10.1739 29.847 9.22728L29.2282 9.16064L28.8622 9.66384L33.1058 12.751C33.3106 12.9003 33.5851 12.9104 33.8002 12.7764C34.0156 12.6424 34.128 12.392 34.0851 12.1423L33.4718 12.2478L33.8381 11.7447L29.5945 8.65753C29.4147 8.52676 29.1795 8.50172 28.9762 8.59176C28.773 8.6818 28.6337 8.87268 28.6099 9.09375C28.4903 10.2005 28.5764 11.4091 28.9048 12.6351C29.2878 14.0619 29.9385 15.3109 30.7537 16.2832C31.569 17.2537 32.5515 17.9564 33.62 18.2449C34.2541 18.4156 34.9208 18.4327 35.5655 18.2593L35.5659 18.2594C36.3365 18.0538 36.995 17.598 37.5018 16.9917C38.0102 16.3851 38.3768 15.6291 38.6033 14.7852C38.9768 13.3856 38.971 11.7358 38.5221 10.058C38.1396 8.63207 37.4891 7.385 36.6749 6.41443C35.8603 5.44558 34.879 4.74506 33.8113 4.45674C33.2545 4.30719 32.6736 4.27505 32.1033 4.38655C31.7715 4.45137 31.5519 4.77003 31.609 5.1031C31.7889 6.14592 32.1013 7.95894 32.3686 9.51069C32.6362 11.0625 32.8584 12.3537 32.8584 12.3537L33.4718 12.2478L33.8381 11.7447L33.4718 12.2478Z" fill="#54596E"/>
<path d="M35.0872 18.4644L35.2705 18.3498L35.0862 18.4626L35.0872 18.4644L35.2705 18.3498L35.0862 18.4626C35.0901 18.4685 35.2327 18.7069 35.3378 19.0148C35.4474 19.324 35.5009 19.6926 35.4286 19.9416C35.3897 20.0801 35.3299 20.1917 35.2024 20.3098C35.014 20.4834 34.6223 20.6808 33.8715 20.752C33.1249 20.8236 32.0418 20.766 30.5496 20.4864C30.2118 20.4235 29.8867 20.6461 29.8235 20.9838C29.7602 21.3218 29.9828 21.6469 30.3209 21.7099C32.4112 22.0978 33.8175 22.1078 34.8238 21.8481C35.3256 21.7171 35.732 21.5101 36.0395 21.2308C36.3476 20.9532 36.5415 20.6052 36.6311 20.2638C36.8002 19.6094 36.6536 19.0105 36.5006 18.5688C36.343 18.1266 36.1583 17.8305 36.1433 17.8055C35.9612 17.5138 35.5773 17.4249 35.2857 17.6066C34.9939 17.7887 34.9051 18.1727 35.0872 18.4644Z" fill="#54596E"/>
<path d="M12.9222 29.8999C14.5331 32.1169 17.1525 33.5605 20.1041 33.5601C23.0407 33.5605 25.648 32.1319 27.2611 29.9341C27.4644 29.6571 27.4046 29.2675 27.1275 29.0642C26.8505 28.8609 26.4609 28.9203 26.2576 29.1977C24.8671 31.0896 22.6312 32.3156 20.1041 32.3156C17.5641 32.3156 15.3176 31.0764 13.9292 29.1682C13.7269 28.8901 13.3377 28.8285 13.0596 29.0307C12.7815 29.2326 12.7203 29.6218 12.9222 29.8999Z" fill="#54596E"/>
</g>
<defs>
<clipPath id="clip0">
<rect width="40" height="40" fill="white"/>
</clipPath>
</defs>
</svg>

<svg width="40" height="40" fill="none" xmlns="http://www.w3.org/2000/svg"><g clip-path="url(#clip0)"><path d="M32.236 27.555c0-6.805-5.517-12.322-12.322-12.322-6.805 0-12.321 5.517-12.321 12.322 0 6.805 5.516 8.215 12.321 8.215s12.322-1.41 12.322-8.215z" fill="#0097A7"/><path d="M32.236 27.555h.622c0-7.149-5.795-12.944-12.944-12.944-7.149 0-12.943 5.795-12.944 12.944 0 1.784.364 3.264 1.051 4.464a6.885 6.885 0 0 0 2.025 2.211c1.23.87 2.736 1.405 4.409 1.728 1.673.322 3.52.434 5.459.434 3.445-.004 6.608-.343 9.008-1.63 1.197-.645 2.2-1.543 2.885-2.743.688-1.2 1.051-2.68 1.051-4.464h-1.245c0 1.619-.326 2.866-.886 3.845a5.631 5.631 0 0 1-1.665 1.815c-1.03.73-2.365 1.22-3.924 1.52-1.558.301-3.334.413-5.224.412-3.36.005-6.358-.362-8.417-1.48-1.033-.56-1.834-1.288-2.396-2.267-.56-.979-.886-2.226-.886-3.845a11.66 11.66 0 0 1 3.426-8.273 11.66 11.66 0 0 1 8.273-3.426 11.66 11.66 0 0 1 8.273 3.426 11.659 11.659 0 0 1 3.426 8.273h.623z" fill="#54596E"/><path d="M19.291 23.945a3.733 3.733 0 1 1-7.467.001 3.733 3.733 0 0 1 7.467 0z" fill="#fff"/><path d="M19.291 23.945h.622a4.356 4.356 0 1 0-8.712.001 4.356 4.356 0 0 0 8.712 0H18.67c0 .86-.347 1.634-.912 2.2a3.098 3.098 0 0 1-2.2.911 3.099 3.099 0 0 1-2.2-.911 3.097 3.097 0 0 1-.91-2.2c0-.862.346-1.635.91-2.2a3.099 3.099 0 0 1 2.2-.912c.862 0 1.636.347 2.2.912.565.565.912 1.338.912 2.2h.622z" fill="#54596E"/><path d="M28.004 23.945a3.734 3.734 0 1 1-7.467.001 3.734 3.734 0 0 1 7.467 0z" fill="#fff"/><path d="M28.003 23.945h.623a4.357 4.357 0 1 0-8.714.002 4.357 4.357 0 0 0 8.714-.002h-1.245c0 .862-.347 1.636-.911 2.2a3.099 3.099 0 0 1-2.2.912 3.099 3.099 0 0 1-2.2-.911 3.098 3.098 0 0 1-.912-2.2c0-.862.347-1.635.912-2.2a3.099 3.099 0 0 1 2.2-.912c.861 0 1.635.347 2.2.912.564.565.911 1.338.911 2.2h.622zM1.08 28.1h.001c.037-.04.574-.598 1.516-1.138a7.897 7.897 0 0 1 4.856-1.01.622.622 0 1 0 .138-1.238 9.152 9.152 0 0 0-5.718 1.229c-1.087.643-1.68 1.284-1.709 1.315a.622.622 0 1 0 .917.843zM1.58 32.53l-.2-.107.2.109v-.001l-.2-.108.2.109c.005-.01.44-.804 1.36-1.65a7.873 7.873 0 0 1 4.274-2.025.622.622 0 0 0-.176-1.232 9.13 9.13 0 0 0-4.99 2.388C.99 31.002.505 31.903.482 31.944a.622.622 0 0 0 1.098.587zM3.634 36.282l-.23-.044.23.045v-.001l-.23-.044.23.045c.001-.01.18-.898.803-1.98a7.876 7.876 0 0 1 3.471-3.213.622.622 0 1 0-.536-1.123 9.128 9.128 0 0 0-4.047 3.774c-.712 1.26-.905 2.264-.914 2.31a.622.622 0 1 0 1.223.23zM39.836 27.258c-.03-.031-.622-.672-1.71-1.315a9.15 9.15 0 0 0-5.717-1.229.622.622 0 0 0 .139 1.237 7.902 7.902 0 0 1 4.946 1.063c.472.28.836.559 1.078.764.12.103.212.188.27.245l.064.063.013.014a.622.622 0 1 0 .917-.842zM39.517 31.944c-.023-.041-.508-.942-1.564-1.93a9.127 9.127 0 0 0-4.991-2.39.623.623 0 0 0-.176 1.233 7.878 7.878 0 0 1 4.317 2.066c.46.429.794.84 1.011 1.14.109.15.188.272.238.354l.055.091.011.02.002.004.2-.11-.2.108v.002l.2-.11-.2.108a.623.623 0 0 0 1.097-.586zM37.589 36.05c-.01-.045-.201-1.05-.914-2.31a9.13 9.13 0 0 0-4.047-3.773.622.622 0 1 0-.536 1.123 7.877 7.877 0 0 1 3.5 3.264c.31.546.506 1.04.623 1.39.059.176.097.316.121.41l.025.103.005.022v.004l.228-.045-.228.044.228-.044-.228.044a.622.622 0 0 0 1.223-.231z" fill="#54596E"/><path d="M16.802 23.945a1.245 1.245 0 1 1-2.489 0 1.245 1.245 0 0 1 2.49 0zM25.515 23.945a1.245 1.245 0 1 1-2.49 0 1.245 1.245 0 0 1 2.49 0z" fill="#55A6FF"/><path d="M6.509 11.887l1.876-7.115c-2.226-.64-4.933 1.411-6.131 4.705-1.235 3.392-.403 6.808 1.858 7.63 2.26.823 5.094-1.259 6.328-4.65a9.094 9.094 0 0 0 .565-3.276l-4.496 2.706z" fill="#0097A7"/><path d="M6.509 11.886l.602.16L8.987 4.93a.623.623 0 0 0-.43-.757 3.775 3.775 0 0 0-1.707-.079c-1.089.194-2.128.807-3.023 1.7-.896.897-1.653 2.082-2.158 3.47-.593 1.632-.743 3.275-.493 4.701.152.861.451 1.646.905 2.295.452.648 1.068 1.159 1.818 1.431.627.23 1.293.27 1.94.155 1.09-.194 2.129-.808 3.026-1.704.896-.898 1.654-2.085 2.16-3.473a9.71 9.71 0 0 0 .602-3.502.622.622 0 0 0-.943-.52l-4.496 2.705.321.534.602.158-.602-.159.32.534 4.497-2.706-.32-.533-.623.012c.02.952-.145 2-.528 3.051-.446 1.226-1.114 2.264-1.87 3.02-.756.757-1.596 1.224-2.363 1.358-.458.08-.888.049-1.297-.1-.487-.178-.893-.504-1.225-.975-.329-.47-.573-1.085-.699-1.797-.209-1.18-.088-2.62.437-4.06.446-1.225 1.113-2.26 1.868-3.014.755-.756 1.593-1.222 2.36-1.355.402-.07.784-.055 1.147.05l.172-.599-.602-.158-1.14 4.324-.736 2.79a.622.622 0 0 0 .923.692l-.321-.534z" fill="#54596E"/><path d="M3.976 17.082c-.017.024-.226.302-.422.73-.19.426-.39 1.01-.278 1.677.06.347.222.711.505 1.014.427.46 1.073.77 1.976.936.907.166 2.092.195 3.68.04a.622.622 0 0 0-.122-1.238c-2.014.2-3.27.061-3.957-.188-.346-.124-.545-.267-.663-.394a.737.737 0 0 1-.193-.387c-.053-.262.042-.64.184-.944.069-.15.144-.281.2-.37l.067-.102.016-.023.003-.004-.174-.128.173.13.001-.002-.174-.128.173.13a.623.623 0 0 0-.995-.749z" fill="#54596E"/><path d="M33.472 12.248l-1.249-7.25c2.274-.444 4.791 1.834 5.698 5.22.935 3.487-.192 6.817-2.516 7.44-2.324.622-4.965-1.699-5.899-5.184a9.101 9.101 0 0 1-.277-3.313l4.243 3.087z" fill="#0097A7"/><path d="M33.472 12.248l.613-.106-1.25-7.25-.613.105.12.611a2.53 2.53 0 0 1 1.147.05c.753.2 1.547.737 2.233 1.556.686.817 1.261 1.907 1.598 3.166.398 1.48.392 2.925.081 4.082-.187.699-.484 1.29-.853 1.73-.37.44-.804.73-1.305.865a2.49 2.49 0 0 1-1.3-.014c-.753-.2-1.549-.74-2.236-1.56-.687-.819-1.263-1.91-1.6-3.17a8.49 8.49 0 0 1-.26-3.086l-.619-.066-.366.503 4.244 3.087a.62.62 0 0 0 .98-.609l-.614.106.366-.503-4.244-3.087a.622.622 0 0 0-.984.436 9.714 9.714 0 0 0 .295 3.541c.383 1.427 1.034 2.676 1.849 3.648.815.97 1.797 1.673 2.866 1.962.634.17 1.3.188 1.946.014.77-.205 1.429-.661 1.936-1.267.508-.607.875-1.363 1.101-2.207.374-1.4.368-3.05-.08-4.727-.383-1.426-1.034-2.673-1.848-3.644-.815-.968-1.796-1.669-2.864-1.957a3.776 3.776 0 0 0-1.708-.07.623.623 0 0 0-.494.716 21766.34 21766.34 0 0 1 1.25 7.25l.613-.105.366-.503-.366.503z" fill="#54596E"/><path d="M35.087 18.464l.183-.114-.184.113.001.001.183-.114-.184.113c.004.005.147.244.252.552.11.309.163.678.09.927a.737.737 0 0 1-.226.368c-.188.173-.58.37-1.33.442-.747.072-1.83.014-3.322-.266a.623.623 0 0 0-.23 1.224c2.091.388 3.498.398 4.504.138.502-.13.908-.338 1.215-.617.309-.278.502-.626.592-.967.17-.655.023-1.253-.13-1.695-.158-.442-.343-.738-.358-.764a.623.623 0 0 0-1.056.66zM12.922 29.9a8.863 8.863 0 0 0 7.182 3.66 8.862 8.862 0 0 0 7.157-3.626.622.622 0 0 0-1.003-.736 7.617 7.617 0 0 1-6.154 3.118 7.618 7.618 0 0 1-6.175-3.148.623.623 0 0 0-1.007.732z" fill="#54596E"/></g><defs><clipPath id="clip0"><path fill="#fff" d="M0 0h40v40H0z"/></clipPath></defs></svg>
